libs/ui/packages/crypto-icons/src/svg/ZEC.svg

<svg width="24" height="24" viewBox="0 0 24 24" fill="none">
<path d="M11.322 14.8845H16.0447V17.397H13.1385C13.1865 18.1155 13.2112 18.7823 13.2592 19.5H10.8135V17.4225H7.90646C7.90646 16.6027 7.80971 15.7823 7.95521 15.0128C8.02796 14.6025 8.46371 14.2432 8.72996 13.8848C9.65114 12.7336 10.5797 11.5883 11.5155 10.449C11.8792 10.0125 12.2422 9.60225 12.654 9.1155H8.12396V6.603H10.8135V4.5H13.1625V6.55125H16.0935C16.0935 7.39725 16.1902 8.21775 16.0447 8.98725C15.972 9.3975 15.5362 9.75675 15.246 10.1153C14.3248 11.2664 13.3963 12.4117 12.4605 13.551C12.0951 14.0074 11.7154 14.4521 11.322 14.8845Z" fill="#F4B728"/>
</svg>

<svg width="24" height="24" viewBox="0 0 24 24" fill="none"><path fill="#f4b728" d="M11.322 14.885h4.723v2.512h-2.907c.049.719.073 1.385.121 2.103h-2.446v-2.078H7.906c0-.82-.096-1.64.05-2.41.072-.41.508-.769.774-1.127q1.382-1.727 2.785-3.436c.364-.437.727-.847 1.139-1.333h-4.53V6.603h2.69V4.5h2.348v2.051h2.931c0 .846.097 1.667-.048 2.436-.073.41-.509.77-.799 1.128a347 347 0 0 1-2.786 3.436q-.548.684-1.138 1.333"/></svg>
